src/assets/icons/sliders.svg

<svg xmlns="http://www.w3.org/2000/svg" width="32" height="32" fill="none"><path stroke="#353434" stroke-linecap="round" stroke-linejoin="round" d="M24 9.7778h-2.6667M17.5556 8v3.5556m-.6667-1.7778H8M11.5556 16H8m6.8889-1.7778v3.5556M24 16h-8.8889M24 22.2222h-2.6667m-3.7777-1.7778V24m-.6667-1.7778H8"/></svg>

<svg width="32" height="32" viewBox="0 0 32 32" fill="none" xmlns="http://www.w3.org/2000/svg">
<path d="M24 9.77778H21.3333M17.5556 8V11.5556M16.8889 9.77778H8M11.5556 16H8M14.8889 14.2222V17.7778M24 16H15.1111M24 22.2222H21.3333M17.5556 20.4444V24M16.8889 22.2222H8" stroke="#353434" stroke-linecap="round" stroke-linejoin="round"/>
</svg>
